app/component-library/components/Icons/Icon/assets/hierarchy.svg

<svg width="24" height="24" viewBox="0 0 24 24" fill="none" xmlns="http://www.w3.org/2000/svg">
<path d="M5.28125 8C6.9381 8 8.28125 6.65685 8.28125 5C8.28125 3.34315 6.9381 2 5.28125 2C3.6244 2 2.28125 3.34315 2.28125 5C2.28125 6.65685 3.6244 8 5.28125 8Z" fill="currentColor"/>
<path d="M19.2812 15C20.9381 15 22.2812 13.6569 22.2812 12C22.2812 10.3431 20.9381 9 19.2812 9C17.6244 9 16.2812 10.3431 16.2812 12C16.2812 13.6569 17.6244 15 19.2812 15Z" fill="currentColor"/>
<path d="M5.28125 22C6.9381 22 8.28125 20.6569 8.28125 19C8.28125 17.3431 6.9381 16 5.28125 16C3.6244 16 2.28125 17.3431 2.28125 19C2.28125 20.6569 3.6244 22 5.28125 22Z" fill="currentColor"/>
<path d="M5.28125 16.75C4.87125 16.75 4.53125 16.41 4.53125 16V8C4.53125 7.59 4.87125 7.25 5.28125 7.25C5.69125 7.25 6.03125 7.59 6.03125 8C6.03125 10.19 7.09125 11.25 9.28125 11.25H16.2812C16.6912 11.25 17.0312 11.59 17.0312 12C17.0312 12.41 16.6912 12.75 16.2812 12.75H9.28125C7.92125 12.75 6.83125 12.4 6.03125 11.74V16C6.03125 16.41 5.69125 16.75 5.28125 16.75Z" fill="currentColor"/>
</svg>

<svg xmlns="http://www.w3.org/2000/svg" width="24" height="24" viewBox="0 0 24 24" fill="none"><path d="M5.281 8a3 3 0 1 0 0-6 3 3 0 0 0 0 6zM19.281 15a3 3 0 1 0 0-6 3 3 0 0 0 0 6zM5.281 22a3 3 0 1 0 0-6 3 3 0 0 0 0 6z" fill="currentColor"/><path d="M5.281 16.75c-.41 0-.75-.34-.75-.75V8c0-.41.34-.75.75-.75s.75.34.75.75c0 2.19 1.06 3.25 3.25 3.25h7c.41 0 .75.34.75.75s-.34.75-.75.75h-7c-1.36 0-2.45-.35-3.25-1.01V16c0 .41-.34.75-.75.75z" fill="currentColor"/></svg>
